X:532151 F:http://www.vwml.org/record/HAM/5/32/15%%VWML:HAM-5-32-15-0 T:Mary Neale
S:Mrs Marina Russell, Upwey coll. HED Hammond
O:England
A:Dorset
N:Transcribed from HAM-05-32-05 Z:EFDSS;PJHeadford
M:3/4
L:1/8
Q:3/4=45
K:C
A A|G> EC2C2&x4C> C|F> GA2A2|G> FD2D2|(C2D2)E2&x4E> E|F FD2D E| F> GA2A2|G> FD2D2|D2z2A> B|c> BA2G2&x2AGF2|G2A2A2|
G> FD2D2|(C2D2)E2&x4E E|F> DD2DE|F> GA2A2|G> FD2D2|D4||
W:[to lefy of title:] 513. [below and to right of title, on sticky label:] D783
W:[to right of label:] Mrs. Russell, Upwey.
W:[below tune:] "Lazarus" in 3/4 time (H.E.D.H.)
W:[beneath all the rest, on the right, initialled:] FEP
